!!!SOCIAL_FUNCTION: songs connected with ceremonies
!!!SOCIAL_FUNCTION2: Buffalo dance
!!!PDT:	1929
!!!LING_GROUP: Caddoan
!!!LANG: Non-Tone
!!!REG: Oklahoma
!!!COM: Anon.
!!!OTL: The Waves of Dust
!!!ODT: <1920//
!!!MPN: Tutukrawitsu [He overtook the enemy, Wicita Blain]
!!!MLC: Pawnee, Oklahoma, United States of America
!! Song was recorded either 1919 or 1920.
!!!AGN: monody
!!!AMT: irregular
!!!RWG: Transcribed pitches, durations, and meters are only approximate.
!! Drum Tempo:  MM120
!! Drum-rhythm: (8 8 8 8 8 8)
**kern	**silbe	**words	**words
*ICvox	*LPawnee	*LPawnee	*LEnglish
*Imale	*	*	*
*clefF4	*	*	*
*k[b-e-a-]	*	*	*
*M2/4	*M2/4	*M2/4	*M2/4
*MM76	*MM76	*MM76	*MM76
*[A,A]	*[A,A]	*[A,A]	*[A,A]
*>A	*>A	*>A	*>A
16f	Ha	Ha	Listen
16f	ti	ti	he
=1	=1	=1	=1
16f	wa-	waka	said
! augmentation dot added:	!	!	!
8.e-	-ka	.	.
16e-	i-	ire	there
16e-	-ra-	.	.
16e-	-re	.	.
16e-	ra	ra	have do
=2	=2	=2	=2
8e-	wa-	waa	coming
8e-	-a	.	.
4r;	.	.	.
=3	=3	=3	=3
16e-	ku-	kura	his
8.e-	-ra	.	.
(16f	ra	ra	have
8.e-)	|	.	.
=4	=4	=4	=4
8f	wa-	wakuru	sayings
8e-	-ku-	.	.
8.B-	-ru	.	.
16B-	i-	ire	there
*M3/4	*M3/4	*M3/4	*M3/4
=5	=5	=5	=5
(8B-	-re	.	.
16.F)	|	.	.
32E-	ra	ra	have
4E-	wa-	waa	coming
(8F	-a	.	.
16.E-)	|	.	.
32E-	i-	ire	there
*M2/4	*M2/4	*M2/4	*M2/4
=6	=6	=6	=6
(8F	-re	.	.
16.E-)	|	.	.
32E-	ra	ra	have
4E-	wa-	waa	coming
=7	=7	=7	=7
4.G	-a	.	.
8f	ru	ru	did
=8	=8	=8	=8
(12f	tit	tit	dust
12e-)	|	.	.
12e-	ka-	kaharu	earth
(12e-	-ha-	.	.
12e-)	|	.	.
12e-	-ru	.	.
=9	=9	=9	=9
(12f	ti-	tiku	wave downward
12e-)	|	.	.
[12f	-ku	.	.
12f_	|	.	.
12f]	|	.	.
12f	i-	ire	there
*M3/4	*M3/4	*M3/4	*M3/4
=10	=10	=10	=10
(12f	-re	.	.
12e-)	|	.	.
12e-	ra	ra	have
4e-	wa-	waa	coming
(16f	-a	.	.
8e-)	|	.	.
16e-	i-	ire	there
=11	=11	=11	=11
(8B-	-re	.	.
16.F)	|	.	.
32F	ra	ra	have
(16F	wa-	wa	coming
8.E-)	|	.	.
(16F	-a	.	.
8E-)	|	.	.
16F	i-	ire	there
=12	=12	=12	=12
(16.F	-re	.	.
32E-)	|	.	.
8E-	ra	ra	have
4E-	wa-	waa	coming
8.E-	-a	.	.
16F	ru-	rute	do
*M2/4	*M2/4	*M2/4	*M2/4
=13	=13	=13	=13
(8F	-te	.	.
16.E-)	|	.	.
32E-	a	.	.
(16F	rax	rax	theme
8.E-)	|	.	.
=14	=14	=14	=14
16F	wi-	wiwari	wallow
8.E-	-wa-	.	.
8.E-	-ri	.	.
16G	hu-	husa	marked place
=15	=15	=15	=15
2E-	-sa	.	.
=16	=16	=16	=16
4.E-	a	.	.
==:|!	==:|!	==:|!	==:|!
*-	*-	*-	*-
!!!HAO:    The next song is also concerning a dream of buffalo.
!!!HAO: The herd was scattered and a man was watching them.
!!!HAO: One of the buffalo lay down.  The man wondered
!!!HAO: why the buffalo had lain down.  That night he
!!!HAO: dreamed about the buffalo, who said that he had
!!!HAO: "taken pitch" on the man.  The buffalo promised
!!!HAO: the man that he would live to old age and be
!!!HAO: able to foretell events a long time before
!!!HAO: they came to pass.
!!!HTX: Listen, he said,
!!!HTX: There the buffalo are coming in a great herd,
!!!HTX: These are his sayings,
!!!HTX: there the buffalo are coming in a great herd,
!!!HTX: The waves of dust roll downward,
!!!HTX: There the buffalo are coming in a great herd,
!!!HTX: They mark the place of the buffalo wallo.
!!!CNT: Pawnee
!!!TXO: Pawnee
!!!OCY: United States
!!!OCL: Frances Densmore
!!!YOR: Frances Densmore, "Pawnee Music"
!!!YOR: Bulletin 93, page 33, No. 8
!!!PPR: Smithsonian Institution, Bureau of American Ethnology
!!!PPR: Government Printing Office
!!!PDT: 1926
!!!PPP: Washington, DC, United States of America
!!!YEC: Electronic Copyright 2000 David Huron
!!!YER: September 2000
!!!YEN: United States of America
!!!ENC: David Huron
!!!RDT: September 1, 2000
!!!EEV: Release 1.0
!!!AIN: tom, vox
